X:10
T:The New German Spa
N:page 13 on manuscript
M:2/4
L:1/8
K:C
e>f (g/f/)e/d/ | cc d2 | .e(e/c/) .f(f/d/) | .e(e/c/) d2 | e>f (g/f/)e/d/ | cc d2 | .e(e/c/) .f(f/d/) | (e/d/)c/B/ c2 H|]
(e>fga) | bc'g2 | .c'(c'/b/) .a(a/g/) | .f(f/e/) d2 | (e>fga | bc')g2 | .c'(c'/b/) a>g | (e/g/)(^f/a/) g2 +D.C.+ |]

